X:5002
T:Earl's Chair, The
R:Reel
C:Trad. O'Neill's 1850
O:Ireland
Z:Paul Hardy's Session Tunebook 2022 (see www.paulhardy.net). Creative Commons cc by-nc-sa licenced.
M:4/4
L:1/8
Q:1/4=130
K:D
"Bm"B2 dB BAFA|B2 dB BAFB|"D"AF F2 DF F2|AFdB ADFA|
"Bm"B2Bd BAFA|B2 dB BAFB|"D"AFAB dcdf|"Em"edef "D"d3 A:|
|:"Em"e2e f "Bm"d2 (3Bcd|"Em"edef "Bm"dBAB|"Em"e2ef "D"d3e|"Bm"fedB "D"ADFA|
"Em"e2e f "Bm"dBB2|"Em"gB B2 "Bm"defg|"D"afbf afeg|"Bm"fedB "D"ADFA:|"_Out""Bm"B8|]

